.files/icons/devices/Display#2.svg

<svg fill="none" height="48" viewBox="0 0 48 48" width="48" xmlns="http://www.w3.org/2000/svg"><g clip-rule="evenodd" fill="#000" fill-rule="evenodd"><path d="m12 14v16h24v-16z" opacity=".3"/><path d="m23 30c-.5523 0-1 .4477-1 1v7h-3c-.5523 0-1 .4477-1 1s.4477 1 1 1h4 2 4c.5523 0 1-.4477 1-1s-.4477-1-1-1h-3v-7c0-.5523-.4477-1-1-1z" opacity=".3"/><path d="m36 10h-24c-2.20914 0-4 1.7909-4 4v16c0 2.2091 1.79086 4 4 4h24c2.2091 0 4-1.7909 4-4v-16c0-2.2091-1.7909-4-4-4zm-24 20v-16h24v16z"/></g></svg>

<svg width="48" height="48" viewBox="0 0 48 48" fill="none" xmlns="http://www.w3.org/2000/svg">
<path opacity="0.3" fill-rule="evenodd" clip-rule="evenodd" d="M12 14V30H36V14H12Z" fill="black"/>
<path opacity="0.3" fill-rule="evenodd" clip-rule="evenodd" d="M23 30C22.4477 30 22 30.4477 22 31V38H19C18.4477 38 18 38.4477 18 39C18 39.5523 18.4477 40 19 40H23H25H29C29.5523 40 30 39.5523 30 39C30 38.4477 29.5523 38 29 38H26V31C26 30.4477 25.5523 30 25 30H23Z" fill="black"/>
<path fill-rule="evenodd" clip-rule="evenodd" d="M36 10H12C9.79086 10 8 11.7909 8 14V30C8 32.2091 9.79086 34 12 34H36C38.2091 34 40 32.2091 40 30V14C40 11.7909 38.2091 10 36 10ZM12 30V14H36V30H12Z" fill="black"/>
</svg>
